Newaita-dark/.DP/22/youtube-indicator-light.svg

<svg xmlns="http://www.w3.org/2000/svg" xmlns:xlink="http://www.w3.org/1999/xlink" width="22px" height="22px" viewBox="0 0 22 22" version="1.1">
<g id="surface1">
<path style=" stroke:none;fill-rule:nonzero;fill:rgb(93.333334%,93.333334%,93.333334%);fill-opacity:1;" d="M 10.890625 4 C 10.890625 4 4.933594 4 3.445312 4.390625 C 2.644531 4.609375 1.988281 5.269531 1.765625 6.082031 C 1.375 7.574219 1.375 10.660156 1.375 10.660156 C 1.375 10.660156 1.375 13.765625 1.765625 15.238281 C 1.988281 16.050781 2.628906 16.695312 3.445312 16.914062 C 4.949219 17.320312 10.890625 17.320312 10.890625 17.320312 C 10.890625 17.320312 16.84375 17.320312 18.332031 16.929688 C 19.148438 16.710938 19.792969 16.070312 20.011719 15.253906 C 20.402344 13.765625 20.402344 10.675781 20.402344 10.675781 C 20.402344 10.675781 20.417969 7.574219 20.011719 6.082031 C 19.792969 5.269531 19.148438 4.625 18.332031 4.40625 C 16.84375 4 10.890625 4 10.890625 4 Z M 9.070312 7.175781 C 9.078125 7.175781 9.085938 7.175781 9.09375 7.175781 C 9.171875 7.179688 9.246094 7.199219 9.3125 7.238281 L 14.378906 10.234375 C 14.679688 10.410156 14.679688 10.847656 14.378906 11.023438 L 9.3125 14.015625 C 9.007812 14.199219 8.621094 13.976562 8.621094 13.621094 L 8.621094 7.636719 C 8.621094 7.382812 8.824219 7.179688 9.070312 7.175781 Z M 9.070312 7.175781 "/>
</g>
</svg>

<svg xmlns="http://www.w3.org/2000/svg" width="22" height="22"><path d="M10.89 4s-5.956 0-7.445.39a2.44 2.44 0 0 0-1.68 1.696c-.39 1.488-.39 4.574-.39 4.574s0 3.106.39 4.578a2.392 2.392 0 0 0 1.68 1.676c1.504.406 7.446.406 7.446.406s5.953 0 7.441-.39a2.385 2.385 0 0 0 1.68-1.676c.39-1.488.39-4.578.39-4.578s.016-3.102-.39-4.59a2.384 2.384 0 0 0-1.68-1.68C16.844 4 10.891 4 10.891 4zM9.07 7.176h.028a.476.476 0 0 1 .214.066l5.067 2.992c.3.176.3.614 0 .79l-5.066 2.992a.457.457 0 0 1-.692-.395V7.637a.46.46 0 0 1 .45-.461zm0 0" fill="#bdbdbd"/></svg>
